X:75
T:Snow Road Cafe Reel
R:Reel
C:Bruce Osborne - Nov.24 1997
L:1/16
M:2/4
Z:abc by Bruce Osborne - bosborne@kos.net
K:D
(3A,B,C|D2DE FDFG|ABAF A2FG|ABAF dBAd|AFDF E2FE|
D2DE FDFG|ABAF A2FG|ABAF dBAF|EDEF D2:|
|:de|fafe dcde|fgfe d2cd|eAfA eAfA|edcB A2de|
fafe dcde|fgfe d2cd|eAfA gece|d2dc d2:|
